icons/heron.svg

<?xml version="1.0" encoding="UTF-8" standalone="no"?>
<svg width="256px" height="256px" viewBox="0 0 256 256" version="1.1" xmlns="http://www.w3.org/2000/svg" xmlns:xlink="http://www.w3.org/1999/xlink" preserveAspectRatio="xMidYMid">
	<g>
		<path d="M201.1947,23.0186 L201.1947,59.1906 C218.1057,77.1726 228.4867,101.3676 228.4867,127.9996 C228.4867,183.4966 183.4967,228.4866 127.9997,228.4866 C118.0507,228.4866 108.4417,227.0376 99.3697,224.3406 C99.2237,224.2966 99.3607,142.8576 99.3607,142.8576 L156.8977,143.0376 L156.8977,208.2606 C167.6317,204.9956 178.1507,198.1186 188.5127,188.6026 L188.5127,112.6906 L99.4127,112.6906 C99.4127,112.6906 99.4977,47.7246 99.3697,47.7536 C81.9817,51.6346 66.9437,67.2886 66.9437,67.2886 L66.9437,240.5256 C85.0917,250.3936 105.8907,255.9996 127.9997,255.9996 C198.6927,255.9996 255.9997,198.6926 255.9997,127.9996 C255.9997,84.5346 234.3157,46.1546 201.1947,23.0186" fill="#048991"></path>
		<path d="M27.5138,128 C27.5138,72.503 72.5028,27.514 127.9998,27.514 C138.0248,27.514 147.7048,28.984 156.8378,31.72 L156.8378,100.008 L188.8068,100.008 L188.8068,15.344 C170.7178,5.559 150.0088,0 127.9998,0 C57.3078,0 -0.0002,57.308 -0.0002,128 C-0.0002,171.356 21.5768,209.65 54.5568,232.805 L54.5568,196.549 C37.7908,178.594 27.5138,154.503 27.5138,128" fill="#818285"></path>
	</g>
</svg>

<svg xmlns="http://www.w3.org/2000/svg" viewBox="0 0 256 256">
  <path fill="#048991" d="M201.195 23.019V59.19c16.91 17.982 27.292 42.177 27.292 68.809 0 55.497-44.99 100.487-100.487 100.487a100.32 100.32 0 0 1-28.63-4.146c-.146-.044-.01-81.483-.01-81.483l57.538.18v65.223c10.734-3.265 21.253-10.142 31.615-19.658V112.69h-89.1s.085-64.966-.043-64.937c-17.388 3.88-32.426 19.535-32.426 19.535v173.237C85.092 250.394 105.89 256 128 256c70.693 0 128-57.307 128-128 0-43.465-21.684-81.845-54.805-104.981"/>
  <path fill="#818285" d="M27.514 128C27.514 72.503 72.503 27.514 128 27.514a100.34 100.34 0 0 1 28.838 4.206v68.288h31.969V15.344C170.718 5.559 150.009 0 128 0 57.308 0 0 57.308 0 128c0 43.356 21.577 81.65 54.557 104.805v-36.256C37.791 178.594 27.514 154.503 27.514 128"/>
</svg>
